usr/share/icons/biglinux-icons-material/scalable/mimetypes/audio-x-generic.svg

<svg width="24" height="24" viewBox="0 0 24 24" fill="none" xmlns="http://www.w3.org/2000/svg">
<rect x="1" y="1" width="22" height="22" rx="6.6" fill="url(#paint0_radial_101_2)"/>
<path opacity="0.125" fill-rule="evenodd" clip-rule="evenodd" d="M11.7179 6.14725L15.1122 5.51299C15.5737 5.42676 16 5.78081 16 6.25023V8.49112C16 8.85185 15.7432 9.16147 15.3887 9.22818L12.4496 9.78127C12.1066 9.84428 12.0456 9.90728 12.0456 10.2574V16.6642C12.0456 18.7228 10.3384 19.5 9.21031 19.5C7.92223 19.5 7 18.7297 7 17.6374C7 16.5661 7.72405 15.831 9.27892 15.5369L10.4908 15.2988C10.8033 15.2428 10.9634 15.0327 10.9634 14.7106L10.9176 6.92448C10.9176 6.50435 11.1996 6.25229 11.7179 6.14725Z" fill="black" fill-opacity="0.875"/>
<path fill-rule="evenodd" clip-rule="evenodd" d="M12.2179 5.64725L15.6122 5.01299C16.0737 4.92676 16.5 5.28081 16.5 5.75023V7.99112C16.5 8.35185 16.2432 8.66147 15.8887 8.72818L12.9496 9.28127C12.6066 9.34428 12.5456 9.40728 12.5456 9.75739V16.1642C12.5456 18.2228 10.8384 19 9.71031 19C8.42223 19 7.5 18.2297 7.5 17.1374C7.5 16.0661 8.22405 15.331 9.77892 15.0369L10.9908 14.7988C11.3033 14.7428 11.4634 14.5327 11.4634 14.2106L11.4176 6.42448C11.4176 6.00435 11.6996 5.75229 12.2179 5.64725Z" fill="url(#paint1_linear_101_2)"/>
<defs>
<radialGradient id="paint0_radial_101_2" cx="0" cy="0" r="1" gradientUnits="userSpaceOnUse" gradientTransform="translate(17.5 1) rotate(116.565) scale(24.5967)">
<stop stop-color="#FAFAFA"/>
<stop offset="1" stop-color="#C0C0C0"/>
</radialGradient>
<linearGradient id="paint1_linear_101_2" x1="19.6934" y1="4.53372" x2="8.94502" y2="19.9799" gradientUnits="userSpaceOnUse">
<stop stop-color="#E996B1"/>
<stop offset="1" stop-color="#BC546F"/>
</linearGradient>
</defs>
</svg>

<svg xmlns="http://www.w3.org/2000/svg" width="24" height="24" fill="none"><rect width="22" height="22" x="1" y="1" fill="url(#a)" rx="6.6"/><path fill="#000" fill-opacity=".875" fill-rule="evenodd" d="m11.718 6.147 3.394-.634A.75.75 0 0 1 16 6.25v2.241a.75.75 0 0 1-.611.737l-2.94.553c-.342.063-.403.126-.403.476v6.407c0 2.059-1.708 2.836-2.836 2.836-1.288 0-2.21-.77-2.21-1.863 0-1.07.724-1.806 2.279-2.1l1.212-.238c.312-.056.472-.266.472-.588l-.045-7.787c0-.42.282-.672.8-.777Z" clip-rule="evenodd" opacity=".125"/><path fill="url(#b)" fill-rule="evenodd" d="m12.218 5.647 3.394-.634a.75.75 0 0 1 .888.737v2.241a.75.75 0 0 1-.611.737l-2.94.553c-.342.063-.403.126-.403.476v6.407c0 2.059-1.708 2.836-2.836 2.836-1.288 0-2.21-.77-2.21-1.863 0-1.07.724-1.806 2.279-2.1l1.212-.238c.312-.056.472-.266.472-.588l-.045-7.787c0-.42.282-.672.8-.777Z" clip-rule="evenodd"/><defs><radialGradient id="a" cx="0" cy="0" r="1" gradientTransform="rotate(116.565 8.441 5.908) scale(24.5967)" gradientUnits="userSpaceOnUse"><stop stop-color="#FAFAFA"/><stop offset="1" stop-color="silver"/></radialGradient><linearGradient id="b" x1="19.693" x2="8.945" y1="4.534" y2="19.98" gradientUnits="userSpaceOnUse"><stop stop-color="#E996B1"/><stop offset="1" stop-color="#BC546F"/></linearGradient></defs></svg>
